src/assets/svg/icons/fa/nuevos/classic/duotone/bells classic duotone.svg

<svg xmlns="http://www.w3.org/2000/svg" viewBox="0 0 640 512"><defs><style>.fa-secondary{opacity:.4}</style></defs><path class="fa-primary" d="M158.4 447.9C122.8 447.9 93.91 419.2 93.91 383.7C93.91 381.1 94.05 378.6 94.34 376.1L211.9 419.5C200.3 436.7 180.7 447.9 158.4 447.9V447.9zM480.8 480C459.6 480 440.8 469.9 429.1 454.1L545.2 411.9C545.3 413.2 545.3 414.5 545.3 415.8C545.3 451.3 516.4 480 480.8 480V480z"/><path class="fa-secondary" d="M249.5 296.7C261.2 328.5 262.4 363.2 253.1 395.8L251.9 399.7L21.4 315.8C10.03 311.7 1.976 301.5 .5931 289.5C-.7903 277.5 4.729 265.7 14.86 259L23.04 253.7C57.61 230.1 83.95 197.8 98.16 159L112.8 119C137.1 50.44 213.1 15.09 282.6 40.08C287.4 41.82 292.1 43.82 296.5 46.04C232.4 88.2 203.2 170.3 230.8 245.5L249.5 296.7zM260.8 234.6C234.7 163.3 271.4 84.41 342.8 58.43C414.1 32.46 493.2 69.21 519.3 140.5L538 191.7C552 229.9 577.8 262.7 611.6 285.3L625.4 294.5C635.4 301.2 640.8 312.1 639.4 324.9C637.9 336.9 629.9 346.1 618.6 351.1L321.1 459.4C309.8 463.5 297.1 460.9 288.3 452.7C279.5 444.5 276 432 279.3 420.5L283.9 404.6C295.1 365.6 293.6 323.1 279.6 285.8L260.8 234.6z"/></svg>

<svg xmlns="http://www.w3.org/2000/svg" viewBox="0 0 640 512"><!--! Font Awesome Pro 6.4.0 by @fontawesome - https://fontawesome.com License - https://fontawesome.com/license (Commercial License) Copyright 2023 Fonticons, Inc. --><defs><style>.fa-secondary{opacity:.4}</style></defs><path class="fa-primary" d="M211.9 419.5L94.3 376.1c-.3 2.5-.4 5-.4 7.5c0 35.5 28.9 64.3 64.5 64.3c22.3 0 41.9-11.3 53.5-28.4zM480.8 480c35.6 0 64.5-28.8 64.5-64.3c0-1.3 0-2.6-.1-3.9L429.1 454.1c11.8 15.7 30.6 25.9 51.7 25.9z"/><path class="fa-secondary" d="M230.8 245.5l18.7 51.2c11.7 31.8 12.9 66.5 3.5 99.1l-1.1 3.9L21.4 315.8C10 311.7 2 301.5 .6 289.5s4.1-23.8 14.3-30.4l8.2-5.4C57.6 231 84 197.8 98.2 159l14.7-40C138 50.4 214 15.1 282.6 40.1c4.8 1.7 9.4 3.7 13.9 6c-64.1 42.2-93.3 124.2-65.7 199.5zm30.1-10.9c-26.1-71.3 10.5-150.2 81.9-176.2s150.4 10.8 176.5 82.1L538 191.7c14 38.2 39.8 71 73.6 93.6l13.7 9.2c10 6.7 15.4 18.5 14 30.4s-9.5 22.1-20.8 26.2L321.1 459.4c-11.3 4.1-24 1.5-32.8-6.7s-12.3-20.7-9-32.2l4.6-15.8c11.2-39 9.7-80.7-4.3-118.9l-18.8-51.2z"/></svg>
